X: 33583
T: Rakes Of Listowel, The
R: jig
M: 6/8
K: Dmajor
|:AFD DFA|d2d cBA|BGE EFA|B2A Bcd|
AFD DFA|ded cBA|Bcd ecA|1 d3 d2B:|2 dfe d2B/c/||
|:d2e fdB|fge fdB|c2d ecA|~e2d ecA|d2e fdB|
[1 ~f2e fdB|ecA ABc|dfe d2B/c/:|2 fba gfe|ecA ABc|d3 dcB||

